32x32/apps/com.github.micahflee.torbrowser-launcher.svg

<svg height="32" width="32" xmlns="http://www.w3.org/2000/svg"><circle cx="16" cy="17" opacity=".2" r="14"/><circle cx="16" cy="16" fill="#7a1ea9" r="14"/><path d="m16 5c-6.615 0-12 5.385-12 12s5.385 12 12 12 12-5.385 12-12-5.385-12-12-12zm0 2.117a9.867 9.867 0 0 1 9.883 9.883 9.867 9.867 0 0 1 -9.883 9.883 9.867 9.867 0 0 1 -9.883-9.883 9.867 9.867 0 0 1 9.883-9.883zm0 1.883c-4.405 0-8 3.595-8 8s3.595 8 8 8 8-3.595 8-8-3.595-8-8-8zm0 2.182a5.802 5.802 0 0 1 5.818 5.818 5.802 5.802 0 0 1 -5.818 5.818 5.802 5.802 0 0 1 -5.818-5.818 5.802 5.802 0 0 1 5.818-5.818zm0 1.818a4 4 0 0 0 -4 4 4 4 0 0 0 4 4 4 4 0 0 0 4-4 4 4 0 0 0 -4-4z" opacity=".2"/><circle cx="16" cy="16" fill="none" r="10.941" stroke="#f4f4f7" stroke-linecap="round" stroke-linejoin="round" stroke-width="2.117647"/><circle cx="16" cy="16" fill="none" r="6.909" stroke="#f4f4f7" stroke-linecap="round" stroke-linejoin="round" stroke-width="2.181818"/><circle cx="16" cy="16" fill="#f4f4f7" r="4"/><path d="m16 29.3c-7.732 0-13.3-5.568-13.3-13.3s5.568-13.3 13.3-13.3z" fill="#7a1ea9"/><path d="m16 2a14 14 0 0 0 -14 14 14 14 0 0 0 .021.586 14 14 0 0 1 13.979-13.586 14 14 0 0 1 13.979 13.414 14 14 0 0 0 .021-.414 14 14 0 0 0 -14-14z" fill="#f4f4f7" opacity=".1"/></svg>

<svg xmlns="http://www.w3.org/2000/svg" width="32" height="32" version="1"><circle style="opacity:.2" cx="16" cy="17" r="14"/><circle style="fill:#7a1ea9" cx="16" cy="16" r="14"/><path style="opacity:.2" d="M16 5C9.385 5 4 10.385 4 17s5.385 12 12 12 12-5.385 12-12S22.615 5 16 5zm0 2.117A9.867 9.867 0 0 1 25.883 17 9.867 9.867 0 0 1 16 26.883 9.867 9.867 0 0 1 6.117 17 9.867 9.867 0 0 1 16 7.117zM16 9c-4.405 0-8 3.595-8 8 0 4.405 3.595 8 8 8 4.405 0 8-3.595 8-8 0-4.405-3.595-8-8-8zm0 2.182A5.802 5.802 0 0 1 21.818 17 5.802 5.802 0 0 1 16 22.818 5.802 5.802 0 0 1 10.182 17 5.802 5.802 0 0 1 16 11.182zM16 13a4 4 0 0 0-4 4 4 4 0 0 0 4 4 4 4 0 0 0 4-4 4 4 0 0 0-4-4z"/><circle style="fill:none;stroke:#f4f4f7;stroke-width:2.11764693;stroke-linecap:round;stroke-linejoin:round" cx="16" cy="16" r="10.941"/><circle style="fill:none;stroke:#f4f4f7;stroke-width:2.18181801;stroke-linecap:round;stroke-linejoin:round" cx="16" cy="16" r="6.909"/><circle style="fill:#f4f4f7" cx="16" cy="16" r="4"/><path style="fill:#7a1ea9" d="M16 29.3C8.268 29.3 2.7 23.732 2.7 16 2.7 8.268 8.268 2.7 16 2.7z"/><path style="opacity:.1;fill:#f4f4f7" d="M16 2A14 14 0 0 0 2 16a14 14 0 0 0 .021.586A14 14 0 0 1 16 3a14 14 0 0 1 13.979 13.414A14 14 0 0 0 30 16 14 14 0 0 0 16 2z"/></svg>
